X: 17500
T: Hills Of Glenorchy, The
R: jig
M: 6/8
K: Adorian
efe ABA|ede g2 e|ded GAG|BGB d2 g|
efe ABA|ede g2 b|age dBG|A3 A3:|
a3 a2 b|agb age|g3 g2 a|gef gfe|
a3 a2 b|agb age|gfg dBG|1 ABA efg:|2 ABA g2 f||

